svg/pi.svg

<svg xmlns="http://www.w3.org/2000/svg" viewBox="0 0 24 24"><path d="M4 5v2h2v12h2V7h6v9a3 3 0 0 0 3 3 3 3 0 0 0 3-3h-2a1 1 0 0 1-1 1 1 1 0 0 1-1-1V7h2V5"/></svg>

<?xml version="1.0" encoding="UTF-8"?><!DOCTYPE svg PUBLIC "-//W3C//DTD SVG 1.1//EN" "http://www.w3.org/Graphics/SVG/1.1/DTD/svg11.dtd"><svg xmlns="http://www.w3.org/2000/svg" xmlns:xlink="http://www.w3.org/1999/xlink" version="1.1" id="mdi-pi" width="24" height="24" viewBox="0 0 24 24"><path d="M4,5V7H6V19H8V7H14V16A3,3 0 0,0 17,19A3,3 0 0,0 20,16H18A1,1 0 0,1 17,17A1,1 0 0,1 16,16V7H18V5" /></svg>
